X:37
T:Flinken
R:polska J
A:H\"alsingland
Z:id:hn-jp-37
M:3/4
L:1/16
K:Ddor
D3E F2FD E2EC | D2DE F2FD A3c | dcde f2fg e2ef | dcdf feec A2AF |
DCDE FAFD EGEC | DCDE FGFD A3c | dcde fega egec |1 cAAc d8 :|
[2 cAAc d6 |: fg | a3g e2eg f2fe | dcdf e2A2 a4 | abag edeg fgfe |
dcdf egec A2fg | a3g e2eg f2fe | dcdf e2A2 a4 | abag e2g2 f2df |
[1 geec d6 :|2 geec d8 ||
<end>
<start>
